src/icons/history.svg

<svg width="21" height="21" viewBox="0 0 21 21" fill="none" xmlns="http://www.w3.org/2000/svg">
<path d="M10.5469 0.75C11.9271 0.75 13.2292 1.01042 14.4531 1.53125C15.6771 2.05208 16.7448 2.76823 17.6562 3.67969C18.5677 4.5651 19.2839 5.61979 19.8047 6.84375C20.3516 8.06771 20.625 9.36979 20.625 10.75C20.625 12.1562 20.3516 13.4714 19.8047 14.6953C19.2839 15.8932 18.5677 16.9479 17.6562 17.8594C16.7448 18.7448 15.6771 19.4479 14.4531 19.9688C13.2292 20.4896 11.9141 20.75 10.5078 20.75C9.33594 20.75 8.21615 20.5547 7.14844 20.1641C6.08073 19.7995 5.10417 19.2786 4.21875 18.6016C3.35938 17.9245 2.61719 17.1172 1.99219 16.1797C1.36719 15.2422 0.9375 14.2266 0.703125 13.1328C0.651042 13.0026 0.625 12.9245 0.625 12.8984C0.625 12.8464 0.625 12.7943 0.625 12.7422C0.625 12.4557 0.716146 12.2214 0.898438 12.0391C1.10677 11.8568 1.35417 11.7656 1.64062 11.7656C1.84896 11.7656 2.04427 11.8438 2.22656 12C2.40885 12.1302 2.52604 12.3125 2.57812 12.5469C2.78646 13.4583 3.13802 14.3047 3.63281 15.0859C4.15365 15.8411 4.76562 16.4922 5.46875 17.0391C6.17188 17.5859 6.95312 18.0156 7.8125 18.3281C8.67188 18.6146 9.57031 18.7578 10.5078 18.7578C11.6276 18.7578 12.6823 18.5495 13.6719 18.1328C14.6615 17.7161 15.5208 17.1562 16.25 16.4531C16.9792 15.724 17.5521 14.8776 17.9688 13.9141C18.4115 12.9245 18.6328 11.8698 18.6328 10.75C18.6328 9.63021 18.4115 8.58854 17.9688 7.625C17.5521 6.63542 16.9792 5.78906 16.25 5.08594C15.5208 4.35677 14.6615 3.78385 13.6719 3.36719C12.7083 2.95052 11.6667 2.74219 10.5469 2.74219C9.08854 2.74219 7.72135 3.10677 6.44531 3.83594C5.16927 4.53906 4.17969 5.51562 3.47656 6.76562H7.14844C7.4349 6.76562 7.66927 6.85677 7.85156 7.03906C8.03385 7.22135 8.125 7.45573 8.125 7.74219C8.125 8.02865 8.03385 8.27604 7.85156 8.48438C7.66927 8.66667 7.4349 8.75781 7.14844 8.75781H1.64062C1.35417 8.75781 1.10677 8.66667 0.898438 8.48438C0.716146 8.27604 0.625 8.02865 0.625 7.74219V1.72656C0.625 1.4401 0.716146 1.20573 0.898438 1.02344C1.10677 0.841146 1.35417 0.75 1.64062 0.75C1.92708 0.75 2.16146 0.841146 2.34375 1.02344C2.52604 1.20573 2.61719 1.4401 2.61719 1.72656V4.5C3.58073 3.30208 4.7526 2.3776 6.13281 1.72656C7.53906 1.07552 9.01042 0.75 10.5469 0.75ZM10.5859 4.5C10.8724 4.5 11.1068 4.59115 11.2891 4.77344C11.4974 4.95573 11.6016 5.1901 11.6016 5.47656V10.3594L14.1016 12.8203C14.3099 12.9766 14.4141 13.1979 14.4141 13.4844C14.4141 13.7708 14.3099 14.0182 14.1016 14.2266C13.9193 14.4089 13.6849 14.5 13.3984 14.5C13.138 14.5 12.9036 14.3958 12.6953 14.1875L9.88281 11.4531C9.70052 11.2708 9.60938 11.0365 9.60938 10.75V5.47656C9.60938 5.1901 9.70052 4.95573 9.88281 4.77344C10.0651 4.59115 10.2995 4.5 10.5859 4.5Z"/>
</svg>

<svg width="21" height="21"><path d="M10.547.75c1.38 0 2.682.26 3.906.781a10.039 10.039 0 0 1 3.203 2.149 9.592 9.592 0 0 1 2.149 3.164 9.466 9.466 0 0 1 .82 3.906 9.56 9.56 0 0 1-.82 3.945 10.162 10.162 0 0 1-2.149 3.164 10.381 10.381 0 0 1-3.203 2.11c-1.224.52-2.539.781-3.945.781a9.7 9.7 0 0 1-3.36-.586 10.235 10.235 0 0 1-2.93-1.562 10.409 10.409 0 0 1-2.226-2.422 8.752 8.752 0 0 1-1.289-3.047 1.087 1.087 0 0 1-.078-.235v-.156c0-.286.091-.52.273-.703a1.09 1.09 0 0 1 .743-.273c.208 0 .403.078.586.234.182.13.299.313.351.547a8.07 8.07 0 0 0 1.055 2.539 8.552 8.552 0 0 0 4.18 3.242c.859.287 1.757.43 2.695.43a8.07 8.07 0 0 0 3.164-.625 8.33 8.33 0 0 0 2.578-1.68 8.104 8.104 0 0 0 1.719-2.539 7.66 7.66 0 0 0 .664-3.164c0-1.12-.221-2.161-.664-3.125a7.55 7.55 0 0 0-1.719-2.54 7.987 7.987 0 0 0-2.578-1.718 7.788 7.788 0 0 0-3.125-.625 8.133 8.133 0 0 0-4.102 1.094 7.473 7.473 0 0 0-2.968 2.93h3.671c.287 0 .521.09.704.273a.952.952 0 0 1 .273.703c0 .287-.091.534-.273.742a.952.952 0 0 1-.704.274H1.641a1.09 1.09 0 0 1-.743-.274 1.09 1.09 0 0 1-.273-.742V1.727c0-.287.091-.521.273-.704A1.09 1.09 0 0 1 1.641.75c.286 0 .52.091.703.273a.952.952 0 0 1 .273.704V4.5a9.852 9.852 0 0 1 3.516-2.773A10.387 10.387 0 0 1 10.547.75Zm.039 3.75c.286 0 .52.091.703.273a.892.892 0 0 1 .313.704v4.882l2.5 2.461c.208.157.312.378.312.664 0 .287-.104.534-.312.743a.952.952 0 0 1-.704.273c-.26 0-.494-.104-.703-.313l-2.812-2.734a.952.952 0 0 1-.274-.703V5.477c0-.287.092-.521.274-.704a.952.952 0 0 1 .703-.273Z"/></svg>
